X:1
T:Title
%%score { ( 1 4 ) | ( 2 3 ) }
L:1/8
Q:1/4=100
M:4/4
K:F
V:1 treble nm="Grand Piano"
V:4 treble 
V:2 bass 
V:3 bass 
V:1
 A>A _A=A dcAF | [DG]2 [B,D]2 [DG]4 | E>_E =EF [EG][FA][GB][EG] | A2 d2 c4 | A>A _A=A dcAF | %5
w: Grant~Colfax~Tullar * * * * * * *|||||
 [DG]2 [DB]2 [Fd]4 | F>F GF A2 c2 | [FA]2 [EG]2 F4 | A>A _A=A dc=Bc | .[CGB]2 .[CEB]2 [EB]4 | %10
w: |||||
 [GB]>[GB] [^FA][GB] [ce][Bd][Ac][Bd] | c-[Gc] z G [CAc]4 | A>A _A=A dcAF | [DG]2 [DB]2 [Fd]4 | %14
w: ||||
 F>F GF A2 c2 | [FA]2 [EG]2 F4 |] %16
w: ||
V:2
 [F,CF]>[F,CF] [F,=B,F][F,CF] [F,_B,F][F,A,F][F,CF][F,A,C] | [B,,B,]2 [B,,F,]2 [B,,B,]4 | %2
 [C,G,C]>[C,^F,C] [C,G,C][C,A,C] [C,C][C,C][C,C][C,C] | [F,CF]2 [F,B,F]2 [F,A,F]4 | %4
 [F,CF]>[F,CF] [F,=B,F][F,CF] [F,_B,F][F,A,F][F,CF][F,A,C] | [B,,B,]2 [B,,F,]2 [B,,B,]4 | %6
 [F,A,C]>[F,A,C] [F,B,C][F,A,C] [F,CF]2 [F,A,F]2 | [C,C]2 [C,B,]2 [F,A,]4 | %8
 [F,CF]>[F,CF] [F,=B,F][F,CF] [F,_B,F][F,A,F][F,_A,F][F,=A,F] | z F z D [C,C]4 | %10
 [C,C]>[C,C] [C,C][C,C] [C,C][C,C][C,C][C,C] | z B,[A,F]B, F,4 | %12
 [F,CF]>[F,CF] [F,=B,F][F,CF] [F,_B,F][F,A,F][F,CF][F,A,C] | [B,,B,]2 [B,,F,]2 [B,,B,]4 | %14
 [F,A,C]>[F,A,C] [F,B,C][F,A,C] [F,CF]2 [F,A,F]2 | [C,C]2 [C,B,]2 [F,A,]4 |] %16
V:3
 x8 | x8 | x8 | x8 | x8 | x8 | x8 | x8 | x8 | C,2 C,2 z4 | x8 | F,2 F,2 z4 | x8 | x8 | x8 | x8 |] %16
V:4
 x8 | x8 | x8 | x8 | x8 | x8 | x8 | x8 | x8 | x8 | x8 | .[CA]2 c2 z4 | x8 | x8 | x8 | x8 |] %16

